X:1
T: Middies Brae
C:
R:Reel
Q: 232
K:A
M:4/4
L:1/8
ed|:c2 cB A2 ce|aA df e2 fg|aA df eA ce|fe dc B2 ed|
c2 cB A2 ce|aA df e2 fg|aA df eA ce|1Bd cB A2 ed:|2Bd cB A2 fg|
|:a2 ed ce ag|f2 df e2 fg|aA df eA ce|fe dc B2 fg|
a2 ed ce ag|f2 df e2 fg|aA df eA ce|1Bd cB A2 fg:|2Bd cB A2||
